X:4600
T:New Found Out, The
O:england
C:Trad
S:The First Month of Spring, John Vesey and Paul Brady
I:speed 250
M:4/4
K:D
|:A3 B AF F2 | dcdf eBdB | (3ABA FA dcdf | eB B2 B2 dB |
A3 B AF F2 | d3 f eBdB | (3ABA FA dcdf |[1eB B2 B2 dB :|[2eB B2 B2 de|
|:f2 df g2 eg | fedf fede | f2 df  gfgb | afdf fefa |
bf f2 afef | d2 ed BAFB | (3ABA FA dcdf |[1eB B2 B2 de:|[2eB B2 B2 dB|


